svg/other/crystal_ball_line.svg

<svg xmlns="http://www.w3.org/2000/svg" width="24" height="24" viewBox="0 0 24 24"><g fill="none"><path d="M24,0 L24,24 L0,24 L0,0 L24,0 Z M12.5935,23.2578 L12.5819,23.2595 L12.5109,23.295 L12.4919,23.2987 L12.4767,23.295 L12.4057,23.2595 C12.3958,23.2564 12.387,23.259 12.3821,23.2649 L12.378,23.2758 L12.3609,23.7031 L12.3659,23.7235 L12.3769,23.7357 L12.4805,23.8097 L12.4953,23.8136 L12.5071,23.8097 L12.6107,23.7357 L12.6233,23.7197 L12.6267,23.7031 L12.6096,23.2758 C12.6076,23.2657 12.601,23.2593 12.5935,23.2578 Z M12.8584,23.1453 L12.8445,23.1473 L12.6598,23.2397 L12.6499,23.2499 L12.6472,23.2611 L12.6651,23.6906 L12.6699,23.7034 L12.6784,23.7105 L12.8793,23.8032 C12.8914,23.8069 12.9022,23.803 12.9078,23.7952 L12.9118,23.7812 L12.8777,23.1665 C12.8753,23.1546 12.8674,23.147 12.8584,23.1453 Z M12.143,23.1473 C12.1332,23.1424 12.1222,23.1453 12.1156,23.1526 L12.1099,23.1665 L12.0758,23.7812 C12.0751,23.7927 12.0828,23.8019 12.0926,23.8046 L12.1083,23.8032 L12.3092,23.7105 L12.3186,23.7024 L12.3225,23.6906 L12.3404,23.2611 L12.3372,23.2485 L12.3278,23.2397 L12.143,23.1473 Z"/><path fill="#09244B" d="M12,2 C16.6944,2 20.5,5.80558 20.5,10.5 C20.5,13.1756889 19.263634,15.56271 17.3310495,17.1208266 L17.105,17.2969 L17.8148,20.1362 C18.0407409,21.0398682 17.3986225,21.9165661 16.4910013,21.9943988 L16.3596,22 L7.64039,22 C6.70888727,22 6.01412136,21.1643779 6.15873567,20.2650286 L6.18517,20.1362 L6.89501,17.2969 C4.83329,15.7459 3.5,13.2786 3.5,10.5 C3.5,5.80558 7.30558,2 12,2 Z M15.2192,18 L8.78076,18 L8.28076,20 L15.7192,20 L15.2192,18 Z M12,4 C8.41015,4 5.5,6.91015 5.5,10.5 C5.5,12.8158 6.71102,14.8487 8.53431,16 L15.4657,16 C17.289,14.8487 18.5,12.8158 18.5,10.5 C18.5,6.91015 15.5899,4 12,4 Z M16.1102,9.56052 C16.1334,9.61254 16.1576,9.66398 16.1831,9.71486 C16.3047,9.95366 16.4604,10.1721 16.6423,10.3684 C16.7912,10.527 16.9585,10.6684 17.1412,10.7895 L17.3174,10.8973 L17.3174,10.8973 C17.3975,10.9423 17.3975,11.0577 17.3174,11.1027 L17.1412,11.2105 L17.1412,11.2105 C16.9585,11.3316 16.7912,11.473 16.6423,11.6316 C16.4607,11.8265 16.305,12.0456 16.1831,12.2851 C16.1576,12.336 16.1334,12.3875 16.1102,12.4395 C16.0678,12.535 15.9322,12.535 15.8898,12.4395 C15.8667,12.3875 15.8424,12.336 15.8169,12.2851 C15.695,12.0456 15.5393,11.8265 15.3577,11.6316 C15.2088,11.473 15.0415,11.3316 14.8588,11.2105 L14.6826,11.1027 L14.6826,11.1027 C14.6025,11.0577 14.6025,10.9423 14.6826,10.8973 L14.8588,10.7895 L14.8588,10.7895 C15.0415,10.6684 15.2088,10.527 15.3577,10.3684 C15.5387,10.173 15.695,9.95441 15.8169,9.71486 C15.8424,9.66397 15.8666,9.61254 15.8898,9.56052 C15.9322,9.46501 16.0678,9.46501 16.1102,9.56052 Z M12.8163,5.60087 C12.887,5.44168 13.113,5.44168 13.1837,5.60087 C13.2222,5.68755 13.2622,5.77364 13.3052,5.8581 C13.5084,6.25734 13.7678,6.62255 14.0705,6.9474 C14.3187,7.21164 14.5975,7.44737 14.9019,7.64918 C14.9974,7.71243 15.0953,7.77235 15.1956,7.82877 C15.3291,7.90388 15.3291,8.09612 15.1956,8.17123 C15.0953,8.22765 14.9974,8.28757 14.9019,8.35082 C14.5975,8.55263 14.3187,8.78836 14.0705,9.0526 C13.7678,9.37745 13.5084,9.74267 13.3052,10.1419 C13.2621,10.2265 13.2222,10.3124 13.1837,10.3991 C13.113,10.5583 12.887,10.5583 12.8163,10.3991 C12.7778,10.3124 12.7379,10.2265 12.6948,10.1419 C12.4916,9.74266 12.2322,9.37744 11.9295,9.0526 C11.6813,8.78836 11.4025,8.55263 11.0981,8.35082 C11.0026,8.28757 10.9047,8.22765 10.8044,8.17123 C10.6709,8.09612 10.6709,7.90388 10.8044,7.82877 C10.9047,7.77235 11.0026,7.71243 11.0981,7.64918 C11.4025,7.44737 11.6813,7.21164 11.9295,6.9474 C12.2322,6.62255 12.4916,6.25734 12.6948,5.85811 C12.7378,5.77362 12.7778,5.68755 12.8163,5.60087 Z"/></g></svg>

<svg xmlns="http://www.w3.org/2000/svg" width="24" height="24"><g fill="none"><path d="M24 0v24H0V0zM12.594 23.258l-.012.002-.071.035-.02.004-.014-.004-.071-.036c-.01-.003-.019 0-.024.006l-.004.01-.017.428.005.02.01.013.104.074.015.004.012-.004.104-.074.012-.016.004-.017-.017-.427c-.002-.01-.009-.017-.016-.018m.264-.113-.014.002-.184.093-.01.01-.003.011.018.43.005.012.008.008.201.092c.012.004.023 0 .029-.008l.004-.014-.034-.614c-.003-.012-.01-.02-.02-.022m-.715.002a.023.023 0 0 0-.027.006l-.006.014-.034.614c0 .012.007.02.017.024l.015-.002.201-.093.01-.008.003-.011.018-.43-.003-.012-.01-.01z"/><path fill="#09244B" d="M12 2a8.5 8.5 0 0 1 5.331 15.12l-.226.177.71 2.84a1.5 1.5 0 0 1-1.324 1.857L16.36 22H7.64a1.5 1.5 0 0 1-1.481-1.735l.026-.129.71-2.84A8.5 8.5 0 0 1 12 2m3.22 16H8.78l-.5 2h7.44zM12 4a6.5 6.5 0 0 0-3.466 12h6.932A6.5 6.5 0 0 0 12 4m4.11 5.56a2.896 2.896 0 0 0 .532.808c.15.159.317.3.5.422l.175.107c.08.045.08.16 0 .206l-.176.107a2.825 2.825 0 0 0-1.03 1.23.12.12 0 0 1-.221 0 2.869 2.869 0 0 0-1.031-1.229l-.176-.108a.118.118 0 0 1 0-.206l.176-.107a2.825 2.825 0 0 0 1.03-1.23.12.12 0 0 1 .221 0M12.816 5.6c.071-.158.297-.158.368 0a4.78 4.78 0 0 0 .887 1.347 4.715 4.715 0 0 0 1.125.882.196.196 0 0 1 0 .342 4.743 4.743 0 0 0-1.126.882 4.78 4.78 0 0 0-.886 1.346.201.201 0 0 1-.368 0 4.78 4.78 0 0 0-.887-1.347 4.715 4.715 0 0 0-1.125-.88.196.196 0 0 1 0-.343 4.743 4.743 0 0 0 1.126-.882 4.78 4.78 0 0 0 .886-1.346"/></g></svg>
